X: 41196
T: Triumph, The
R: barndance
M: 4/4
K: Amajor
a2|eccA dBBG|Aaag gffa|eccA dBBG|A2 c2 A2:|
z2|[B2E2] e2 c2 e2|[B2E2] e2 c2 e2|BBBd ccce|c2 B2 A2:|
z2|c2 cd e2 c2|B2 Bc d2 B2|cBcd eagf|edcB A2 AB|
c2 cd fedc|B2 Bc edcB|c2 cd eagf|edcB Aagf||

